Numix/16/mimetypes/application-x-gramps-package.svg

<?xml version="1.0" encoding="UTF-8" standalone="no"?>
<svg
   xmlns:dc="http://purl.org/dc/elements/1.1/"
   xmlns:cc="http://creativecommons.org/ns#"
   xmlns:rdf="http://www.w3.org/1999/02/22-rdf-syntax-ns#"
   xmlns:svg="http://www.w3.org/2000/svg"
   xmlns="http://www.w3.org/2000/svg"
   xmlns:sodipodi="http://sodipodi.sourceforge.net/DTD/sodipodi-0.dtd"
   xmlns:inkscape="http://www.inkscape.org/namespaces/inkscape"
   width="16"
   height="16"
   viewBox="0 0 16 16"
   id="svg2"
   version="1.1"
   inkscape:version="0.91 r13725"
   sodipodi:docname="application-x-gramps-package.svg">
  <metadata
     id="metadata16">
    <rdf:RDF>
      <cc:Work
         rdf:about="">
        <dc:format>image/svg+xml</dc:format>
        <dc:type
           rdf:resource="http://purl.org/dc/dcmitype/StillImage" />
        <dc:title />
      </cc:Work>
    </rdf:RDF>
  </metadata>
  <defs
     id="defs14">
    <clipPath
       id="clipPath-258929573">
      <g
         transform="translate(0,-1004.3622)"
         id="g17">
        <path
           inkscape:connector-curvature="0"
           d="m -24,13 c 0,1.105 -0.672,2 -1.5,2 -0.828,0 -1.5,-0.895 -1.5,-2 0,-1.105 0.672,-2 1.5,-2 0.828,0 1.5,0.895 1.5,2 z"
           transform="matrix(15.333333,0,0,11.5,414.99999,878.8622)"
           style="fill:#1890d0"
           id="path19" />
      </g>
    </clipPath>
  </defs>
  <sodipodi:namedview
     pagecolor="#ffffff"
     bordercolor="#666666"
     borderopacity="1"
     objecttolerance="10"
     gridtolerance="10"
     guidetolerance="10"
     inkscape:pageopacity="0"
     inkscape:pageshadow="2"
     inkscape:window-width="1920"
     inkscape:window-height="1013"
     id="namedview12"
     showgrid="true"
     inkscape:zoom="32"
     inkscape:cx="16.823011"
     inkscape:cy="7.2588114"
     inkscape:window-x="0"
     inkscape:window-y="27"
     inkscape:window-maximized="1"
     inkscape:current-layer="svg2">
    <inkscape:grid
       type="xygrid"
       id="grid3018" />
  </sodipodi:namedview>
  <path
     style="fill:#a88167;fill-opacity:1"
     d="M 2.667969,-4.46e-4 C 2.324219,-4.46e-4 2,0.3378121 2,0.6964468 L 2,15.303108 C 2,15.641365 2.34375,16 2.667969,16 l 10.664062,0 C 13.65625,16 14,15.641365 14,15.303108 l 0,-11.303554 -4,-4 z"
     id="path4-7"
     inkscape:connector-curvature="0"
     sodipodi:nodetypes="ssssssccs" />
  <path
     style="fill:#000000;fill-opacity:0.19599998"
     d="m 10.583223,3.331585 0.0154,0.019531 0.04005,-0.019531 z M 10.613,3.999554 14,7.663616 14,3.999554 z"
     id="path6-6"
     inkscape:connector-curvature="0"
     sodipodi:nodetypes="cccccccc" />
  <path
     style="fill:#ffffff;fill-opacity:0.39200003"
     d="m 10,-4.46e-4 3.996396,4 -3.383784,0 C 10.313513,3.999554 10,3.6824369 10,3.3833376 z"
     id="path8-0"
     inkscape:connector-curvature="0"
     sodipodi:nodetypes="ccssc" />
  <path
     id="path59-2-9-0-3"
     style="color:#000000;font-style:normal;font-variant:normal;font-weight:normal;font-stretch:normal;font-size:medium;line-height:normal;font-family:sans-serif;text-indent:0;text-align:start;text-decoration:none;text-decoration-line:none;text-decoration-style:solid;text-decoration-color:#000000;letter-spacing:normal;word-spacing:normal;text-transform:none;direction:ltr;block-progression:tb;writing-mode:lr-tb;baseline-shift:baseline;text-anchor:start;white-space:normal;clip-rule:nonzero;display:inline;overflow:visible;visibility:visible;opacity:1;isolation:auto;mix-blend-mode:normal;color-interpolation:sRGB;color-interpolation-filters:linearRGB;solid-color:#000000;solid-opacity:1;fill:#f9f9f9;fill-opacity:1;fill-rule:nonzero;stroke:none;stroke-width:0.7627061;stroke-linecap:butt;stroke-linejoin:miter;stroke-miterlimit:4;stroke-dasharray:none;stroke-dashoffset:0;stroke-opacity:1;color-rendering:auto;image-rendering:auto;shape-rendering:auto;text-rendering:auto;enable-background:accumulate"
     d="m 5,10 c -0.901327,0 -1,0.09127 -1,1 l 0,1 c 0,0.85694 0.14656,1 1,1 l 1,0 c 0.794971,0 1,-0.240536 1,-1 L 7,11 C 7,10.132012 6.868999,10 6,10 Z m 0,1 1,0 0,1 -1,0 z m 5,-1 c -0.9013269,0 -1,0.09127 -1,1 l 0,1 c 0,0.85694 0.1465599,1 1,1 l 1,0 c 0.794971,0 1,-0.240536 1,-1 l 0,-1 c 0,-0.867988 -0.131001,-1 -1,-1 z m 0,1 1,0 0,1 -1,0 z m 0.999999,-3.9999878 0,2.9999878 -0.9999994,0 0,-1.9999818 -0.9999994,0 0,-1.000006 M 8,6 C 7.1502558,6 7,6.1627626 7,7 L 7,8 C 7,8.813556 7.1801129,9 8,9 L 8,9 C 8.802436,9 9,8.8535575 9,8 L 9,7 C 9,6.1589277 8.8913654,6 8,6 Z m -3.0000014,1.0000122 0,2.9999878 1,0 0,-1.9999818 1.000001,0 0,-1.000006" />
</svg>

<svg xmlns="http://www.w3.org/2000/svg" viewBox="0 0 16 16">
 <path d="m 2.668 0 c -0.344 0 -0.668 0.338 -0.668 0.697 l 0 14.607 c 0 0.338 0.344 0.697 0.668 0.697 l 10.664 0 c 0.324 0 0.668 -0.359 0.668 -0.697 l 0 -11.304 -4 -4 z" style="fill:#a88167;fill-opacity:1"/>
 <path d="m 10.583 3.332 0.015 0.02 0.04 -0.02 z m 0.03 0.668 3.387 3.664 0 -3.664 z" style="fill:#000;fill-opacity:0.196"/>
 <path d="m 10 0 3.996 4 -3.384 0 c -0.299 0 -0.613 -0.317 -0.613 -0.616 z" style="fill:#fff;fill-opacity:0.392"/>
 <path d="m 5 10 c -0.901 0 -1 0.091 -1 1 l 0 1 c 0 0.857 0.147 1 1 1 l 1 0 c 0.795 0 1 -0.241 1 -1 l 0 -1 c 0 -0.868 -0.131 -1 -1 -1 m -1 1 1 0 0 1 -1 0 z m 5 -1 c -0.901 0 -1 0.091 -1 1 l 0 1 c 0 0.857 0.147 1 1 1 l 1 0 c 0.795 0 1 -0.241 1 -1 l 0 -1 c 0 -0.868 -0.131 -1 -1 -1 z m 0 1 1 0 0 1 -1 0 z m 1 -4 0 3 -1 0 0 -2 -1 0 0 -1 m -1 -1 c -0.85 0 -1 0.163 -1 1 l 0 1 c 0 0.814 0.18 1 1 1 l 0 0 c 0.802 0 1 -0.146 1 -1 l 0 -1 c 0 -0.841 -0.109 -1 -1 -1 m -3 1 0 3 1 0 0 -2 1 0 0 -1" mix-blend-mode="normal" isolation="auto" white-space="normal" solid-opacity="1" solid-color="#000000" style="visibility:visible;shape-rendering:auto;color-interpolation-filters:linearRGB;fill:#f9f9f9;opacity:1;image-rendering:auto;fill-opacity:1;stroke:none;display:inline;color:#000;fill-rule:nonzero;color-rendering:auto;color-interpolation:sRGB"/>
</svg>
